X:71
T:Symphony No. 25
C:W. A. Mozart
L:1/8
Q:1/4=125
M:4/4
K:Cb
|: [aA][aA] z[aA] z[aA] z[aA] | [eE][eE] z[eE] z[eE] z[eE] | [=e=E][eE] z[eE] z[eE] z[eE] | 
[=G=G,][GG,] z[GG,] z[GG,] z[GG,] | (3A=Be a2 =b/_b/a/=g/ a2 | (3Bd=g b2 d'/=b/_b/g/ b2 | 
=Be a=b e'/d'/b/_b/ =b2 | d'/=b/_b/g/ b2 =b/_b/a/=g/ a2 | =g/a/g/a/ =d/e/d/e/ B/=B/_B/=B/ =A/_B/A/B/ | 
(3ddd (3BBB (3=GGG (3AAA | =G2 E2 :| 
 

